X: 29
T:New Roundabout, The
R:polka
C:Dave Hennessy
Z:Alf Warnock - alf0@rogers.com
M:2/4
L:1/8
S: Gerry O'Connor. Swannanoa 2008
K:G
D|GA Bc|d>e dB|c2 BA|GB DD|GA Bc|d>e dB|c2 BA| G2 G:|
D|A2 BA|GB dB|A2 BA|GE ED|A2 BA|GB dB|c2 BA|G2 G:|

